svg/u1f251.svg

<svg viewBox="0 0 128 128" xmlns="http://www.w3.org/2000/svg">
  <linearGradient id="a" gradientTransform="translate(0 -4122)" gradientUnits="userSpaceOnUse" x1="64" x2="64" y1="4127.5" y2="4246.8">
    <stop offset="0" stop-color="#FFAB40"/>
    <stop offset="1" stop-color="#FF6D00"/>
  </linearGradient>
  <circle cx="64" cy="64" fill="url(#a)" r="60"/>
  <g opacity=".2">
    <path d="M64,7c31.4,0,57,25.6,57,57s-25.6,57-57,57S7,95.4,7,64S32.6,7,64,7 M64,4C30.9,4,4,30.9,4,64 s26.9,60,60,60s60-26.9,60-60S97.1,4,64,4L64,4z" fill="#424242"/>
  </g>
  <g opacity=".2">
    <path d="m102.3 29.5c1.1 0 2 0.9 2 2v4.4c0 1.1-0.9 2-2 2h-6.8c-1.1 0-2 0.9-2 2v55.4c0 5.4-1.4 8.3-5.2 9.5-3.7 1.4-9.5 1.6-17.8 1.6-0.9 0-1.7-0.6-1.9-1.4-0.4-1.4-1.1-3.1-1.8-4.7-0.6-1.3 0.4-2.8 1.8-2.8h0.1c3.5 0.1 7 0.1 9.5 0.1h3.7c2-0.1 2.6-0.6 2.6-2.5v-55.2c0-1.1-0.9-2-2-2h-57c-1.1 0-2-0.9-2-2v-4.5c0-1.1 0.9-2 2-2l76.8 0.1m-34.3 20.3c1.1 0 2 0.9 2 2v30.2c0 1.1-0.9 2-2 2h-25.3c-1.1 0-2 0.9-2 2v3.1c0 1.1-0.9 2-2 2h-4.2c-1.1 0-2-0.9-2-2v-37.3c0-1.1 0.9-2 2-2h33.5m-25.3 26.2h16.9c1.1 0 2-0.9 2-2v-14.2c0-1.1-0.9-2-2-2h-16.9c-1.1 0-2 0.9-2 2v14.2c0 1.1 0.9 2 2 2m59.6-49.5h-76.6c-2.8 0-5 2.2-5 5v4.4c0 2.8 2.2 5 5 5h56v53.8h-0.8-2.6c-3.5 0-6.6-0.1-9.4-0.1h-0.2c-1.7 0-3.3 0.8-4.2 2.3-0.9 1.4-1.1 3.2-0.4 4.7s1.3 3.1 1.6 4.3c0.6 2.1 2.6 3.6 4.8 3.6 8.3 0 14.5-0.2 18.8-1.8 6.3-2.2 7.2-7.7 7.2-12.3v-54.4h5.8c2.8 0 5-2.2 5-5v-4.5c0-2.8-2.2-5-5-5zm-34.3 20.3h-33.4c-2.8 0-5 2.2-5 5v37.2c0 2.8 2.2 5 5 5h4.2c2.8 0 5-2.2 5-5v-2h24.2c2.8 0 5-2.2 5-5v-30.2c0-2.7-2.3-5-5-5zm-24.3 14h14.9v12.2h-14.9v-12.2z" fill="#424242"/>
  </g>
  <path d="m102.3 38h-6.8c-1.1 0-2 0.9-2 2v55.4c0 5.4-1.4 8.3-5.2 9.5-3.7 1.4-9.5 1.6-17.8 1.6-0.9 0-1.7-0.6-1.9-1.4-0.4-1.4-1.1-3.1-1.8-4.7-0.6-1.3 0.4-2.8 1.9-2.8 5.8 0.2 11.4 0.1 13.3 0.1 2-0.1 2.6-0.6 2.6-2.5v-55.3c0-1.1-0.9-2-2-2h-57c-1.1 0-2-0.9-2-2v-4.5c0-1.1 0.9-2 2-2h76.6c1.1 0 2 0.9 2 2v4.4c0.1 1.2-0.8 2.1-1.9 2.2zm-61.5 48v3.1c0 1.1-0.9 2-2 2h-4.2c-1.1 0-2-0.9-2-2v-37.3c0-1.1 0.9-2 2-2h33.4c1.1 0 2 0.9 2 2v30.2c0 1.1-0.9 2-2 2h-25.2c-1.1 0-2 0.9-2 2zm0-26.2v14.2c0 1.1 0.9 2 2 2h16.9c1.1 0 2-0.9 2-2v-14.2c0-1.1-0.9-2-2-2h-16.9c-1.1 0-2 0.9-2 2z" fill="#FAFAFA"/>
</svg>

<svg viewBox="0 0 128 128" xmlns="http://www.w3.org/2000/svg" xmlns:xlink="http://www.w3.org/1999/xlink">
  <linearGradient id="SVGID_1_" gradientTransform="matrix(1 0 0 1 0 -4121.9702)" gradientUnits="userSpaceOnUse" x1="64" x2="64" y1="4127.4702" y2="4246.7998">
    <stop offset="0" style="stop-color:#FFAB40"/>
    <stop offset="1" style="stop-color:#FF6D00"/>
  </linearGradient>
  <circle cx="64" cy="64" fill="url(#SVGID_1_)" r="60"/>
  <g opacity="0.2">
    <path d="M64,7c31.4,0,57,25.6,57,57s-25.6,57-57,57S7,95.4,7,64S32.6,7,64,7 M64,4C30.9,4,4,30.9,4,64 s26.9,60,60,60s60-26.9,60-60S97.1,4,64,4L64,4z" fill="#424242"/>
  </g>
  <g opacity="0.2">
    <path d="M102.3,29.5c1.1,0,2,0.9,2,2v4.4c0,1.1-0.9,2-2,2h-6.8c-1.1,0-2,0.9-2,2v55.4c0,5.4-1.4,8.3-5.2,9.5 c-3.7,1.4-9.5,1.6-17.8,1.6c-0.9,0-1.7-0.6-1.9-1.4c-0.4-1.4-1.1-3.1-1.8-4.7c-0.6-1.3,0.4-2.8,1.8-2.8h0.1c3.5,0.1,7,0.1,9.5,0.1 c1.7,0,3,0,3.7,0c2-0.1,2.6-0.6,2.6-2.5V39.9c0-1.1-0.9-2-2-2h-57c-1.1,0-2-0.9-2-2v-4.5c0-1.1,0.9-2,2-2L102.3,29.5 M68,49.8 c1.1,0,2,0.9,2,2V82c0,1.1-0.9,2-2,2H42.7c-1.1,0-2,0.9-2,2v3.1c0,1.1-0.9,2-2,2h-4.2c-1.1,0-2-0.9-2-2V51.8c0-1.1,0.9-2,2-2H68 M42.7,76h16.9c1.1,0,2-0.9,2-2V59.8c0-1.1-0.9-2-2-2H42.7c-1.1,0-2,0.9-2,2V74C40.7,75.1,41.6,76,42.7,76 M102.3,26.5H25.7 c-2.8,0-5,2.2-5,5v4.4c0,2.8,2.2,5,5,5h56v53.8h-0.8c-0.7,0-1.6,0-2.6,0c-3.5,0-6.6-0.1-9.4-0.1h-0.2c-1.7,0-3.3,0.8-4.2,2.3 c-0.9,1.4-1.1,3.2-0.4,4.7s1.3,3.1,1.6,4.3c0.6,2.1,2.6,3.6,4.8,3.6c8.3,0,14.5-0.2,18.8-1.8c6.3-2.2,7.2-7.7,7.2-12.3V41h5.8 c2.8,0,5-2.2,5-5v-4.5C107.3,28.7,105.1,26.5,102.3,26.5z M68,46.8H34.6c-2.8,0-5,2.2-5,5V89c0,2.8,2.2,5,5,5h4.2c2.8,0,5-2.2,5-5 v-2H68c2.8,0,5-2.2,5-5V51.8C73,49.1,70.7,46.8,68,46.8z M43.7,60.8h14.9V73H43.7V60.8z" fill="#424242"/>
  </g>
  <path d="M102.3,38h-6.8c-1.1,0-2,0.9-2,2v55.4c0,5.4-1.4,8.3-5.2,9.5c-3.7,1.4-9.5,1.6-17.8,1.6 c-0.9,0-1.7-0.6-1.9-1.4c-0.4-1.4-1.1-3.1-1.8-4.7c-0.6-1.3,0.4-2.8,1.9-2.8c5.8,0.2,11.4,0.1,13.3,0.1c2-0.1,2.6-0.6,2.6-2.5V39.9 c0-1.1-0.9-2-2-2h-57c-1.1,0-2-0.9-2-2v-4.5c0-1.1,0.9-2,2-2h76.6c1.1,0,2,0.9,2,2v4.4C104.3,37,103.4,37.9,102.3,38L102.3,38z M40.8,86v3.1c0,1.1-0.9,2-2,2h-4.2c-1.1,0-2-0.9-2-2V51.8c0-1.1,0.9-2,2-2H68c1.1,0,2,0.9,2,2V82c0,1.1-0.9,2-2,2H42.8 C41.7,84,40.8,84.9,40.8,86z M40.8,59.8V74c0,1.1,0.9,2,2,2h16.9c1.1,0,2-0.9,2-2V59.8c0-1.1-0.9-2-2-2H42.8 C41.7,57.8,40.8,58.7,40.8,59.8z" fill="#FAFAFA"/>
</svg>
